48x48/apps/GP6-icon.svg

<svg xmlns="http://www.w3.org/2000/svg" width="48" height="48" version="1">
 <path fill="#4f4f4f" d="m36.96 36.056c-8.533 9.699-15.969 9.426-21.075 4.976-7.6639-6.679-14.753-30.942-10.711-35.536 4.0415-4.5948 29.482 2.3962 34.937 7.481 5.4552 5.0852 5.8299 12.868-3.1517 23.078z"/>
 <path style="opacity:0.2" d="M 18.855469,18 C 16.708182,18 15.027195,18.618272 13.8125,19.853516 12.603939,21.082669 12,22.798568 12,25.003906 c 0,2.199247 0.603939,3.9171 1.8125,5.152344 C 15.027263,31.385469 16.70825,32 18.855469,32 19.837066,32 20.759951,31.874161 21.625,31.621094 22.490049,31.361969 23.282239,30.982531 24,30.482422 L 24,24 l -4.876953,0 0,2 L 22,26 l 0,3.3125 0,0.002 C 21.588945,29.549446 21.284866,29.72341 20.769531,29.837891 20.254216,29.946346 19.66816,30 19.011719,30 17.330762,30 16.06735,29.539085 15.220703,28.617188 14.38019,27.695291 13.958984,26.823603 13.958984,25.003906 c 0,-1.825721 0.421206,-2.697242 1.261719,-3.61914 C 16.06735,20.462869 17.330762,20 19.011719,20 c 0.852645,0 1.664599,0.146366 2.4375,0.435547 0.7729,0.289181 1.863076,0.718678 2.550781,1.291015 l 0,-2.443359 C 23.319043,18.861421 22.214138,18.543085 21.404297,18.326172 20.600657,18.109259 19.751189,18 18.855469,18 Z M 27,18 l 0,14 2,0 0,-5 2.257812,0 C 33.526131,26.947549 36,26 36,23 36,20 34.073429,18.043102 31.257812,18 L 27,18 Z m 2,2 2.251953,0 c 0.875604,0 1.553089,0.216649 2.03125,0.650391 C 33.761363,21.084138 34,21.699888 34,22.496094 34,23.298248 33.761363,23.915867 33.283203,24.349609 32.805042,24.783351 32.127557,25 31.251953,25 L 29,25 29,20 Z"/>
 <path style="fill:#f4f4f7" d="M 18.855469,17 C 16.708182,17 15.027195,17.618272 13.8125,18.853516 12.603939,20.082669 12,21.798568 12,24.003906 c 0,2.199247 0.603939,3.9171 1.8125,5.152344 C 15.027263,30.385469 16.70825,31 18.855469,31 19.837066,31 20.759951,30.874161 21.625,30.621094 22.490049,30.361969 23.282239,29.982531 24,29.482422 V 23 h -4.876953 v 2 H 22 v 3.3125 0.002 C 21.588945,28.549446 21.284866,28.72341 20.769531,28.837891 20.254216,28.946346 19.66816,29 19.011719,29 17.330762,29 16.06735,28.539085 15.220703,27.617188 14.38019,26.695291 13.958984,25.823603 13.958984,24.003906 c 0,-1.825721 0.421206,-2.697242 1.261719,-3.61914 C 16.06735,19.462869 17.330762,19 19.011719,19 c 0.852645,0 1.664599,0.146366 2.4375,0.435547 0.7729,0.289181 1.863076,0.718678 2.550781,1.291015 V 18.283203 C 23.319043,17.861421 22.214138,17.543085 21.404297,17.326172 20.600657,17.109259 19.751189,17 18.855469,17 Z"/>
 <path style="fill:#f14649" d="M 27 17 L 27 31 L 29 31 L 29 26 L 31.257812 26 C 33.526131 25.947549 36 25 36 22 C 36 19 34.073429 17.043102 31.257812 17 L 27 17 z M 29 19 L 31.251953 19 C 32.127557 19 32.805042 19.216649 33.283203 19.650391 C 33.761363 20.084138 34 20.699888 34 21.496094 C 34 22.298248 33.761363 22.915867 33.283203 23.349609 C 32.805042 23.783351 32.127557 24 31.251953 24 L 29 24 L 29 19 z"/>
 <path fill="#fff" opacity=".1" d="m10.465 4.0023c-2.499 0.0375-4.407 0.489-5.2912 1.4941-0.8679 0.9867-1.2182 2.8846-1.164 5.3159 0.0545-1.9505 0.4188-3.4687 1.164-4.3159 4.0418-4.5947 29.482 2.3952 34.937 7.4809 2.3169 2.1598 3.7049 4.8116 3.8613 7.9238 0.121-3.548-1.3-6.537-3.861-8.924-4.262-3.9733-20.722-9.109-29.646-8.975z"/>
 <path opacity=".2" d="m4.0098 10.813c-0.24134 8.63 5.6246 25.771 11.875 31.219 5.1061 4.4503 12.542 4.7233 21.074-4.9766 5.167-5.8739 7.2256-10.939 7.0137-15.154-0.13606 4.0103-2.248 8.7367-7.0137 14.154-8.5325 9.6998-15.968 9.4269-21.074 4.9766-6.0179-5.246-11.677-21.327-11.875-30.22z"/>
</svg>

<svg xmlns="http://www.w3.org/2000/svg" width="48" height="48" version="1"><path fill="#4f4f4f" d="M36.96 36.056c-8.533 9.699-15.969 9.426-21.075 4.976C8.221 34.353 1.132 10.09 5.174 5.496 9.216.901 34.656 7.892 40.111 12.977c5.455 5.085 5.83 12.868-3.152 23.078z"/><path style="opacity:.2" d="M18.855 18c-2.147 0-3.828.618-5.043 1.854C12.604 21.083 12 22.799 12 25.004c0 2.2.604 3.917 1.813 5.152C15.027 31.386 16.707 32 18.855 32c.982 0 1.905-.126 2.77-.379A8.282 8.282 0 0 0 24 30.482V24h-4.877v2H22v3.315c-.411.234-.715.408-1.23.523a8.584 8.584 0 0 1-1.758.162c-1.681 0-2.945-.46-3.791-1.383-.84-.922-1.262-1.793-1.262-3.613 0-1.826.421-2.697 1.262-3.62.846-.921 2.11-1.384 3.79-1.384.853 0 1.665.146 2.438.436.773.289 1.863.718 2.551 1.29v-2.443c-.681-.422-1.786-.74-2.596-.957A9.742 9.742 0 0 0 18.855 18zM27 18v14h2v-5h2.258C33.526 26.948 36 26 36 23s-1.927-4.957-4.742-5H27zm2 2h2.252c.876 0 1.553.217 2.031.65.478.434.717 1.05.717 1.846 0 .802-.239 1.42-.717 1.854-.478.433-1.155.65-2.031.65H29v-5z"/><path style="fill:#f4f4f7" d="M18.855 17c-2.147 0-3.828.618-5.043 1.854C12.604 20.083 12 21.799 12 24.004c0 2.2.604 3.917 1.813 5.152C15.027 30.386 16.707 31 18.855 31c.982 0 1.905-.126 2.77-.379A8.282 8.282 0 0 0 24 29.482V23h-4.877v2H22v3.315c-.411.234-.715.408-1.23.523a8.584 8.584 0 0 1-1.758.162c-1.681 0-2.945-.46-3.791-1.383-.84-.922-1.262-1.793-1.262-3.613 0-1.826.421-2.697 1.262-3.62.846-.921 2.11-1.384 3.79-1.384.853 0 1.665.146 2.438.436.773.289 1.863.718 2.551 1.29v-2.443c-.681-.422-1.786-.74-2.596-.957A9.742 9.742 0 0 0 18.855 17z"/><path style="fill:#f14649" d="M27 17v14h2v-5h2.258C33.526 25.948 36 25 36 22s-1.927-4.957-4.742-5H27zm2 2h2.252c.876 0 1.553.217 2.031.65.478.434.717 1.05.717 1.846 0 .802-.239 1.42-.717 1.854-.478.433-1.155.65-2.031.65H29v-5z"/><path fill="#fff" opacity=".1" d="M10.465 4.002c-2.499.038-4.407.49-5.291 1.494-.868.987-1.218 2.885-1.164 5.316.054-1.95.419-3.468 1.164-4.316 4.042-4.594 29.482 2.396 34.937 7.481 2.317 2.16 3.705 4.812 3.861 7.924.121-3.548-1.3-6.537-3.86-8.924-4.263-3.973-20.723-9.109-29.647-8.975z"/><path opacity=".2" d="M4.01 10.813c-.242 8.63 5.624 25.771 11.875 31.219 5.106 4.45 12.542 4.723 21.074-4.977 5.167-5.873 7.225-10.939 7.014-15.154-.137 4.01-2.248 8.737-7.014 14.154-8.533 9.7-15.968 9.427-21.074 4.977C9.867 35.786 4.208 19.705 4.01 10.812z"/></svg>
